!!!COM: Mozart, Wolfgang Amadeus
!!!OTL: Quartet No. 1 in D Major for flute, violin, viola and cello
!!!OMD: Rondo: Allegro
!!!OMV: 3
!!!SCT1: K<sup>1</sup> 285
!!!SCA: Chronologisch-thematisches Verzeichnis sämtlicher Tonwerke Wolfgang Amade Mozarts (L. von Köchel; 1862, 2/1905, 3/1937, 1947)
!!!SCT2: K<sup>6</sup> 285
!!!YOR: Breitkopf & Härtel Edition
!!!ENC: Frances Bennion
!!!CDT: 1756/1/27/-1791/12/5/
!!!OCY: Österreich
!!!YEC: Copyright (c) 1994, 2000 Center for Computer Assisted Research in the Humanities
!!!YEM: Rights to all derivative editions reserved.
!!!YEM: Refer to licensing agreement for further details.
!!!YEN: United States of America
**kern	**kern	**kern	**kern
*k[f#c#]	*k[f#c#]	*k[f#c#]	*k[f#c#]
*D:	*D:	*D:	*D:
*clefC	*clefF	*clefG	*clefG
*M2/4	*M2/4	*M2/4	*M2/4
2r	4d	16f#	4.aa
.	.	16d	.
.	.	16f#	.
.	.	16d	.
.	4r	16f#	.
.	.	16d	.
.	.	16f#	8ddd
.	.	16d	.
=2	=2	=2	=2
2r	4d	16g	8ccc#
.	.	16d	.
.	.	16g	8bb
.	.	16d	.
.	4r	16f#	4aa
.	.	16d	.
.	.	16f#	.
.	.	16d	.
=3	=3	=3	=3
2r	4d	16f#	16gg#
.	.	16d	16aa
.	.	16f#	16gg#
.	.	16d	16aa
.	8r	16f#	16gg#
.	.	16d	16aa
.	8d	16f#	16bb
.	.	16d	16aa
=4	=4	=4	=4
2r	4A	16e	8aa
.	.	16c#	.
.	.	16e	8gg
.	.	16c#	.
.	4D	16d	4ff#
.	.	16A	.
.	.	16d	.
.	.	16A	.
=5	=5	=5	=5
2r	4F#	16a	4dd
.	.	16g	.
.	.	16f#	.
.	.	16e	.
.	8F#	16d	8dd
.	.	16c#	.
.	8F#	16B	8dd
.	.	16A	.
=6	=6	=6	=6
2r	4.G	16B	4.ee
.	.	16c#	.
.	.	16d	.
.	.	16e	.
.	.	16f#	.
.	.	16g	.
.	16F#	16a	16ff#
.	16E	16b	16gg
=7	=7	=7	=7
2r	4A	16f#	8aa
.	.	16a	.
.	.	16e	8gg
.	.	16a	.
.	8A	16d	8ff#
.	.	16a	.
.	8A	16c#	8ee
.	.	16a	.
=8	=8	=8	=8
2r	8d	16f#	8dd
.	.	16d	.
.	8A	16f#	8a
.	.	16f#	.
.	8F#	16d	8f#
.	.	16A	.
.	8D	16f#	8d
.	.	16f#	.
=9	=9	=9	=9
4D	16f#	4.a	4.aa
.	16d	.	.
.	16f#	.	.
.	16d	.	.
4r	16f#	.	.
.	16d	.	.
.	16f#	8dd	8ddd
.	16d	.	.
=10	=10	=10	=10
4D	16g	8cc#	8ccc#
.	16d	.	.
.	16g	8b	8bb
.	16d	.	.
4r	16f#	4a	4aa
.	16d	.	.
.	16f#	.	.
.	16d	.	.
=11	=11	=11	=11
4D	16e#	16g#	16gg#
.	16f#	16a	16aa
.	16e#	16g#	16gg#
.	16f#	16a	16aa
8r	16e#	16g#	16gg#
.	16f#	16a	16aa
8D	16g	16b	16bb
.	16f#	16a	16aa
=12	=12	=12	=12
4AA	16e	8a	8aa
.	16d	.	.
.	16c#	8g	8gg
.	16e	.	.
4D	16d	4f#	4ff#
.	16A	.	.
.	16d	.	.
.	16A	.	.
=13	=13	=13	=13
4F#	16a	4d	4dd
.	16g	.	.
.	16f#	.	.
.	16e	.	.
8F#	16d	8d	8dd
.	16c#	.	.
8F#	16B	8d	8dd
.	16A	.	.
=14	=14	=14	=14
4.G	16B	4.e	4.ee
.	16c#	.	.
.	16d	.	.
.	16e	.	.
.	16f#	.	.
.	16g	.	.
16F#	16a	16f#	16ff#
16E	16b	16g	16gg
=15	=15	=15	=15
4A	16f#	8a	8aa
.	16a	.	.
.	16e	8g	8gg
.	16a	.	.
8A	16d	8f#	8ff#
.	16a	.	.
8A	16c#	8e	8ee
.	16a	.	.
=16	=16	=16	=16
8d	16f#	4d	8dd
.	16d	.	.
8A	16f#	.	8a
.	16f#	.	.
8F#	16d	4r	8f#
.	16A	.	.
8D	16f#	.	8d
.	16f#	.	.
=17	=17	=17	=17
4AA	16c#	8r	2r
.	16e	.	.
.	16A	8gg	.
.	16e	.	.
8r	16c#	4gg	.
.	16e	.	.
8A	16A	.	.
.	16e	.	.
=18	=18	=18	=18
4D	16d	8r	2r
.	16f#	.	.
.	16A	16ff#	.
.	16f#	16aa	.
8r	16d	4ddd	.
.	16f#	.	.
8D	16A	.	.
.	16f#	.	.
=19	=19	=19	=19
4AA	16c#	8r	2r
.	16e	.	.
.	16A	8gg	.
.	16e	.	.
8r	16c#	4gg	.
.	16e	.	.
8A	16A	.	.
.	16e	.	.
=20	=20	=20	=20
4D	16d	8r	2r
.	16f#	.	.
.	16A	16ff#	.
.	16f#	16aa	.
8r	16d	4ddd	.
.	16f#	.	.
8D	16A	.	.
.	16f#	.	.
=21	=21	=21	=21
4F#	16a	4d	4dd
.	16g	.	.
.	16f#	.	.
.	16e	.	.
8F#	16d	8d	8dd
.	16c#	.	.
8F#	16B	8d	8dd
.	16A	.	.
=22	=22	=22	=22
4.G	16B	4.e	4.ee
.	16c#	.	.
.	16d	.	.
.	16e	.	.
.	16f#	.	.
.	16g	.	.
16F#	16a	16f#	16ff#
16E	16b	16g	16gg
=23	=23	=23	=23
8F#	8f#	8a	8aa
8G	8e	8g	8gg
8A	8d	8f#	8ff#
8A	8c#	8e	8ee
=24	=24	=24	=24
8D	16d	4d	8dd
.	16A	.	.
8A	16f#	.	8a
.	16f#	.	.
8F#	16d	4r	8f#
.	16A	.	.
8D	16f#	.	8d
.	16f#	.	.
=25	=25	=25	=25
4AA	16c#	8r	2r
.	16e	.	.
.	16A	8gg	.
.	16e	.	.
8r	16c#	4gg	.
.	16e	.	.
8A	16A	.	.
.	16e	.	.
=26	=26	=26	=26
4D	16d	8r	2r
.	16f#	.	.
.	16A	16ff#	.
.	16f#	16aa	.
8r	16d	4ddd	.
.	16f#	.	.
8D	16A	.	.
.	16f#	.	.
=27	=27	=27	=27
4AA	16c#	8r	2r
.	16e	.	.
.	16A	8gg	.
.	16e	.	.
8r	16c#	4gg	.
.	16e	.	.
8A	16A	.	.
.	16e	.	.
=28	=28	=28	=28
4D	16d	8r	2r
.	16f#	.	.
.	16A	16ff#	.
.	16f#	16aa	.
8r	16d	4ddd	.
.	16f#	.	.
8D	16A	.	.
.	16f#	.	.
=29	=29	=29	=29
4F#	16a	4d	4dd
.	16g	.	.
.	16f#	.	.
.	16e	.	.
8F#	16d	8d	8dd
.	16c#	.	.
8F#	16B	8d	8dd
.	16A	.	.
=30	=30	=30	=30
16G	16B	4.e	4.ee
16F#	16A	.	.
16E	16G	.	.
16D	16F#	.	.
8C#	16E	.	.
.	16e	.	.
16D	16d	16f#	16ff#
16E	16c#	16g	16gg
=31	=31	=31	=31
8F#	8d	8a	8aa
8G	8e	8g	8gg
8A	8d	8f#	8ff#
8AA	8c#	8e	8ee
=32	=32	=32	=32
8D	4d	16f#	8dd
.	.	16A	.
8A	.	16f#	8a
.	.	16f#	.
8F#	4r	16d	8f#
.	.	16A	.
8D	.	16f#	8d
.	.	16f#	.
=33	=33	=33	=33
2r	16f#	8a	4ff#
.	16d	.	.
.	16a	8f#	.
.	16a	.	.
.	16f#	8d	8ff#
.	16d	.	.
.	16a	8A	16ee
.	16a	.	16dd
=34	=34	=34	=34
8G	4a	16e	4cc#
.	.	16A	.
8E	.	16g	.
.	.	16g	.
8C#	4r	16e	4r
.	.	16A	.
8AA	.	16g	.
.	.	16g	.
=35	=35	=35	=35
2r	16c#	8ee	4gg
.	16A	.	.
.	16e	8cc#	.
.	16e	.	.
.	16c#	8a	8gg
.	16A	.	.
.	16e	8g	16ff#
.	16e	.	16ee
=36	=36	=36	=36
8d	4a	16f#	4dd
.	.	16d	.
8A	.	16a	.
.	.	16a	.
8F#	4r	16f#	4r
.	.	16d	.
8D	.	16a	.
.	.	16a	.
=37	=37	=37	=37
2r	8f#	16dd	4aa
.	.	16a	.
.	8d	16ff#	.
.	.	16ff#	.
.	8A	16ff#	8aa
.	.	16a	.
.	8F#	16dd	16gg
.	.	16dd	16ff#
=38	=38	=38	=38
8G	8B	8dd	16ee
.	.	.	16dd#
8G	4B	4dd	16ee
.	.	.	16ff#
8G	.	.	16gg
.	.	.	16ff#
8G	[8b	[8dd	16gg
.	.	.	16aa
=39	=39	=39	=39
8G	8b]	8dd]	16aa#
.	.	.	16bb
8G	4e	8dd	16aa#
.	.	.	16bb
8G	.	16cc#	16aa
.	.	16b	16gg
8G	8B	16a	16ff#
.	.	16g	16ee
=40	=40	=40	=40
8A	4A	8f#	8dd
8A	.	8e	8cc#
16E	4r	4r	4r
16D	.	.	.
16C#	.	.	.
16BB	.	.	.
=41	=41	=41	=41
8AA	8c#	4.ee	2r
8AA	8c#	.	.
8AA	8c#	.	.
8AA	8c#	8aa	.
=42	=42	=42	=42
4BB	4d	8aa	2r
.	.	8gg#	.
4r	4r	8ff#	.
.	.	8ee	.
=43	=43	=43	=43
8GG#	4.B	4.dd	2r
8GG#	.	.	.
8GG#	.	.	.
8GG#	8d	8ff#	.
=44	=44	=44	=44
4AA	8d	8ff#	2r
.	8c#	8ee	.
4r	8B	8dd	.
.	8A	8cc#	.
=45	=45	=45	=45
8D#	16a	4b	4bb
.	16f#	.	.
8D#	16a	.	.
.	16f#	.	.
8D#	16a	8b	8bb
.	16f#	.	.
8D#	16a	8b	8bb
.	16f#	.	.
=46	=46	=46	=46
8D	16g#	4.b	4.bb
.	16e	.	.
8D	16g#	.	.
.	16e	.	.
8D	16g#	.	.
.	16e	.	.
8D	16g#	16cc#	16ccc#
.	16e	16dd	16ddd
=47	=47	=47	=47
8C#	8a	8ee	16eee
.	.	.	16ccc#
8r	8r	8r	16bb
.	.	.	16aa
8D	8b	8dd	16gg#
.	.	.	16ff#
8r	8r	8r	16ddd
.	.	.	16bb
=48	=48	=48	=48
8E	8g#	8b 8e	16aa
.	.	.	16gg#
4.r	4.r	4.r	16bb
.	.	.	16gg#
.	.	.	16ff#
.	.	.	16ee
.	.	.	16dd#
.	.	.	16ee
=49	=49	=49	=49
8A	4.c#	[4ee	2r
8A	.	.	.
8A	.	16ee]	.
.	.	16ff#	.
8F#	8d#	16gg#	.
.	.	16aa	.
=50	=50	=50	=50
4E	8e	8aa	2r
.	8b	8gg#	.
4r	8a	8ff#	.
.	8g#	8ee	.
=51	=51	=51	=51
8F#	4a	[4dd	2r
8F#	.	.	.
8G#	16b	16dd]	.
.	16b	16dd	.
8G#	16cc#	16ee	.
.	16dd	16ff#	.
=52	=52	=52	=52
4A	8dd	8ff#	2r
.	8cc#	8ee	.
4r	8b	8dd	.
.	8a	8cc#	.
=53	=53	=53	=53
8D#	16a	4b	4bb
.	16f#	.	.
8D#	16a	.	.
.	16f#	.	.
8D#	16a	8b	8bb
.	16f#	.	.
8D#	16a	8b	8bb
.	16f#	.	.
=54	=54	=54	=54
8D	16g#	4.b	4.bb
.	16e	.	.
8D	16g#	.	.
.	16e	.	.
8D	16g#	.	.
.	16e	.	.
8D	16g#	16cc#	16ccc#
.	16e	16dd	16ddd
=55	=55	=55	=55
8C#	8a	8ee	16eee
.	.	.	16ccc#
8D	8b	8dd	16bb
.	.	.	16ddd
8E	8a	8cc#	16ccc#
.	.	.	16aa
8E	8g#	8b	16bb
.	.	.	16gg#
=56	=56	=56	=56
4AA	4a	4a	16aa
.	.	.	16ee
.	.	.	16ff#
.	.	.	16gg#
4r	4r	4r	16aa
.	.	.	16bb
.	.	.	16ccc#
.	.	.	16ddd
=57	=57	=57	=57
4A	8r	16c#	4eee
.	.	16e	.
.	8c#	16e	.
.	.	16e	.
8r	8e	16a	8ccc#
.	.	16e	.
8c#	8a	16e	8aa
.	.	16e	.
=58	=58	=58	=58
4B	8r	16d	8gg#
.	.	16e	.
.	8d	16e	8bb
.	.	16e	.
8r	8G#	16b	4dd
.	.	16e	.
8G#	8B	16e	.
.	.	16e	.
=59	=59	=59	=59
4A	8r	16a	8cc#
.	.	16e	.
.	8c#	16e	8ee
.	.	16e	.
8r	8A	16c#	4a
.	.	16e	.
8C#	8E	16e	.
.	.	16e	.
=60	=60	=60	=60
4D	8r	16B	8g#
.	.	16e	.
.	8D	16e	8b
.	.	16e	.
8r	8G#	16b	4d
.	.	16e	.
8GG#	8B	16e	.
.	.	16e	.
=61	=61	=61	=61
4AA	16c#	4ee	2r
.	16e	.	.
.	16e	.	.
.	16e	.	.
8A	16a	8cc#	.
.	16e	.	.
8c#	16e	8a	.
.	16e	.	.
=62	=62	=62	=62
4B	16d	8g#	[2ee
.	16e	.	.
.	16e	8b	.
.	16e	.	.
8E	16G#	4d	.
.	16B	.	.
8G#	16B	.	.
.	16B	.	.
=63	=63	=63	=63
4A	16c#	16c#	2ee_
.	16d	16A	.
.	16e	16A	.
.	16c#	16A	.
8C#	8A	16a	.
.	.	16e	.
8AA	8A	16c#	.
.	.	16c#	.
=64	=64	=64	=64
4BB	8G#	16d	2ee_
.	.	16B	.
.	8B	16G#	.
.	.	16G#	.
8GG#	4D	16dd	.
.	.	16b	.
8EE	.	16g#	.
.	.	16g#	.
=65	=65	=65	=65
8AA	8C#	8a	4ee]
8A	8c#	8aa	.
8B	8d	8gg#	4r
8c#	8e	8gg	.
=66	=66	=66	=66
2d	4a	8ee#	2r
.	.	8ff#	.
.	8f#	8dd	.
.	8g#	16cc#	.
.	.	16b	.
=67	=67	=67	=67
8c#	8a	16dd#	2r
.	.	16ee	.
8F#	4a	16cc#	.
.	.	16a	.
8D	.	4b	.
8E	8g#	.	.
=68	=68	=68	=68
8AA	8a	8a	8r
4.r	8A	8cc#	8aa
.	8B	8dd	8gg#
.	8c#	8ee	8gg
=69	=69	=69	=69
2r	8d	8a	8ee#
.	8d	8a	8ff#
.	8f#	8a	8dd
.	8d#	8a	16cc#
.	.	.	16b
=70	=70	=70	=70
4E	8a 8e	8cc# 8e	16cc#
.	.	.	16ee
.	8a 8e	8cc# 8e	16aa
.	.	.	16ccc#
4r	8a 8e	8cc# 8e	[4eee
.	8a 8e	8cc# 8e	.
=71	=71	=71	=71
4E	8e	8cc#	8eee]
.	8f#	8cc	8ddd#
4r	8g#	8b	8ddd
.	8a	8a	8ccc#
=72	=72	=72	=72
4E	8e	8a	[2bb
.	8e	8a	.
4r	8e	8a	.
.	8e	8a	.
=73	=73	=73	=73
8E	8e 8d	8g#	2bb]
8E	8e 8d	8g#	.
8E	8e 8d	8g#	.
8E	8e 8d	8g#	.
=74	=74	=74	=74
8AA	8c#	8a	8aa
8C#	8e	8g	4aa
8D	8d	8f#	.
8D#	8c	8ff#	[8aa
=75	=75	=75	=75
8E	8c#	8ee	8aa]
8E	8A	8cc#	16bb
.	.	.	16ccc#
8E	8G#	8b	16ddd
.	.	.	16bb
8E	8B	8dd	16aa
.	.	.	16gg#
=76	=76	=76	=76
8AA	8A	8cc#	8aa
8C#	8e	8gg	4aa
8D	8d	8ff#	.
8F#	8cc	8dd#	[8aa
=77	=77	=77	=77
8E	8cc#	8ee	8aa]
8E	8a	8cc#	16bb
.	.	.	16ccc#
8E	8g#	8b	16ddd
.	.	.	16bb
8E	8b	8dd	16aa
.	.	.	16gg#
=78	=78	=78	=78
8AA	8a	8cc#	4aa
4r	4r	8A	.
.	.	8B	4r
8G	8A	8c#	.
=79	=79	=79	=79
8F#	8A	8d	2r
8C#	8A	8e	.
8D	8A	8f#	.
8BB	8d	8g#	.
=80	=80	=80	=80
4AA	4c#	4a	8r
.	.	.	8a
4r	8r	8r	8b
.	8g	8a	8cc#
=81	=81	=81	=81
2r	8f#	8a	8dd
.	8c#	8a	8ee
.	8d	8a	8ff#
.	8e	8a	8gg
=82	=82	=82	=82
2r	4d	16f#	4.aa
.	.	16d	.
.	.	16f#	.
.	.	16d	.
.	4r	16f#	.
.	.	16d	.
.	.	16f#	8ddd
.	.	16d	.
=83	=83	=83	=83
2r	4d	16g	8ccc#
.	.	16d	.
.	.	16g	8bb
.	.	16d	.
.	4r	16f#	4aa
.	.	16d	.
.	.	16f#	.
.	.	16d	.
=84	=84	=84	=84
2r	4d	16f#	16gg#
.	.	16d	16aa
.	.	16f#	16gg#
.	.	16d	16aa
.	8r	16f#	16gg#
.	.	16d	16aa
.	8d	16f#	16bb
.	.	16d	16aa
=85	=85	=85	=85
2r	4A	16e	8aa
.	.	16c#	.
.	.	16e	8gg
.	.	16c#	.
.	4D	16d	4ff#
.	.	16A	.
.	.	16d	.
.	.	16A	.
=86	=86	=86	=86
2r	4F#	16a	4dd
.	.	16g	.
.	.	16f#	.
.	.	16e	.
.	8F#	16d	8dd
.	.	16c#	.
.	8F#	16B	8dd
.	.	16A	.
=87	=87	=87	=87
2r	4.G	16B	4.ee
.	.	16c#	.
.	.	16d	.
.	.	16e	.
.	.	16f#	.
.	.	16g	.
.	16F#	16a	16ff#
.	16E	16b	16gg
=88	=88	=88	=88
2r	4A	16f#	8aa
.	.	16a	.
.	.	16e	8gg
.	.	16a	.
.	8A	16d	8ff#
.	.	16a	.
.	8A	16c#	8ee
.	.	16a	.
=89	=89	=89	=89
2r	8d	16f#	8dd
.	.	16d	.
.	8A	16f#	8a
.	.	16f#	.
.	8F#	16d	8f#
.	.	16A	.
.	8D	16f#	8d
.	.	16f#	.
=90	=90	=90	=90
4D	16f#	4.a	4.aa
.	16d	.	.
.	16f#	.	.
.	16d	.	.
4r	16f#	.	.
.	16d	.	.
.	16f#	8dd	8ddd
.	16d	.	.
=91	=91	=91	=91
4D	16g	8cc#	8ccc#
.	16d	.	.
.	16g	8b	8bb
.	16d	.	.
4r	16f#	4a	4aa
.	16d	.	.
.	16f#	.	.
.	16d	.	.
=92	=92	=92	=92
4D	16e#	16g#	16gg#
.	16f#	16a	16aa
.	16e#	16g#	16gg#
.	16f#	16a	16aa
8r	16e#	16g#	16gg#
.	16f#	16a	16aa
8D	16g	16b	16bb
.	16f#	16a	16aa
=93	=93	=93	=93
4AA	16e	8a	8aa
.	16d	.	.
.	16c#	8g	8gg
.	16e	.	.
4D	16d	4f#	4ff#
.	16A	.	.
.	16d	.	.
.	16A	.	.
=94	=94	=94	=94
4F#	16a	4d	4dd
.	16g	.	.
.	16f#	.	.
.	16e	.	.
8F#	16d	8d	8dd
.	16c#	.	.
8F#	16B	8d	8dd
.	16A	.	.
=95	=95	=95	=95
4.G	16B	4.e	4.ee
.	16c#	.	.
.	16d	.	.
.	16e	.	.
.	16f#	.	.
.	16g	.	.
16F#	16a	16f#	16ff#
16E	16b	16g	16gg
=96	=96	=96	=96
4A	16f#	8a	8aa
.	16a	.	.
.	16e	8g	8gg
.	16a	.	.
8A	16d	8f#	8ff#
.	16a	.	.
8A	16c#	8e	8ee
.	16a	.	.
=97	=97	=97	=97
8d	16f#	4d	8dd
.	16d	.	.
8A	16f#	.	8a
.	16f#	.	.
8F#	16d	4r	8f#
.	16A	.	.
8D	16f#	.	8d
.	16f#	.	.
=98	=98	=98	=98
4AA	16c#	8r	2r
.	16e	.	.
.	16A	8gg	.
.	16e	.	.
8r	16c#	4gg	.
.	16e	.	.
8A	16A	.	.
.	16e	.	.
=99	=99	=99	=99
4D	16d	8r	2r
.	16f#	.	.
.	16A	16ff#	.
.	16f#	16aa	.
8r	16d	4ddd	.
.	16f#	.	.
8D	16A	.	.
.	16f#	.	.
=100	=100	=100	=100
4AA	16c#	8r	2r
.	16e	.	.
.	16A	8gg	.
.	16e	.	.
8r	16c#	4gg	.
.	16e	.	.
8A	16A	.	.
.	16e	.	.
=101	=101	=101	=101
4D	16d	8r	2r
.	16f#	.	.
.	16A	16ff#	.
.	16f#	16aa	.
8r	16d	4ddd	.
.	16f#	.	.
8D	16A	.	.
.	16f#	.	.
=102	=102	=102	=102
4F#	16a	4d	4dd
.	16g	.	.
.	16f#	.	.
.	16e	.	.
8F#	16d	8d	8dd
.	16c#	.	.
8F#	16B	8d	8dd
.	16A	.	.
=103	=103	=103	=103
4.G	16B	4.e	4.ee
.	16c#	.	.
.	16d	.	.
.	16e	.	.
.	16f#	.	.
.	16g	.	.
16F#	16a	16f#	16ff#
16E	16b	16g	16gg
=104	=104	=104	=104
8F#	8f#	8a	8aa
8G	8e	8g	8gg
8A	8d	8f#	8ff#
8A	8c#	8e	8ee
=105	=105	=105	=105
8D	16d	4d	8dd
.	16A	.	.
8A	16f#	.	8a
.	16f#	.	.
8F#	16d	4r	8f#
.	16A	.	.
8D	16f#	.	8d
.	16f#	.	.
=106	=106	=106	=106
8c	16d	8cc	2r
.	16A	.	.
8A	16f#	8a	.
.	16f#	.	.
8F#	16d	8f#	.
.	16A	.	.
8C	16f#	8c	.
.	16f#	.	.
=107	=107	=107	=107
8B	16d	8b	2r
.	16B	.	.
8G	16g	8g	.
.	16g	.	.
8D	16d	8d	.
.	16B	.	.
8BB	16g	8B	.
.	16g	.	.
=108	=108	=108	=108
8A	16c	8a	2r
.	16A	.	.
8F#	16d	8f#	.
.	16d	.	.
8C	16c	8c	.
.	16A	.	.
8AA	16d	8A	.
.	16d	.	.
=109	=109	=109	=109
4GG	8B	8G	2g
.	8d	8b	.
4r	8d	8b	.
.	8d	8b	.
=110	=110	=110	=110
4G	8r	8r	2ddd
.	8B	8g	.
4r	8B	8g	.
.	8B	8g	.
=111	=111	=111	=111
4G	8r	8r	16eee
.	.	.	16ccc
.	8e 8c	8g 8G	16bb
.	.	.	16ccc
4r	8e 8c	8g 8G	16bb
.	.	.	16ccc
.	8e 8c	8g 8G	16ddd
.	.	.	16eee
=112	=112	=112	=112
8r	4d 4B	8g 8G	4ddd
8d	.	8dd	.
8B	4r	8b	4r
8G	.	8g	.
=113	=113	=113	=113
8D	2D	8d	2r
8r	.	8d	.
4D	.	8f#	.
.	.	8d	.
=114	=114	=114	=114
4E	2cc	8g	2r
.	.	8d	.
4F#	.	8a	.
.	.	8d	.
=115	=115	=115	=115
8G	8b	8g	2r
8r	16a	16f#	.
.	16b	16g	.
8d	16dd	16b	.
.	16b	16g	.
8D	16cc	16a	.
.	16a	16f#	.
=116	=116	=116	=116
8G	8g	8g	2r
8E	8G	8B	.
8C	8A	8c	.
8D	16G	16B	.
.	16F#	16A	.
=117	=117	=117	=117
8GG	4G	4G	4g
8G	.	.	.
8G	4r	4r	4bb
8G	.	.	.
=118	=118	=118	=118
8F#	2r	4d	4aa
8F#	.	.	.
8F#	.	4aa	16gg
.	.	.	16ff#
8F#	.	.	16ee
.	.	.	16dd#
=119	=119	=119	=119
8E	4E	4gg	16ee
.	.	.	16ff#
8E	.	.	16gg
.	.	.	16aa
8E	4g	4r	8bb
8E	.	.	8bb
=120	=120	=120	=120
8D	4f#	4B	4bb
8D	.	.	.
8D	16e	4ff#	4b
.	16d	.	.
8D	16c	.	.
.	16B	.	.
=121	=121	=121	=121
8C	16c	4ee	4e
.	16d	.	.
8C	16e	.	.
.	16f#	.	.
8C	8g	4r	4ee
8C	8g	.	.
=122	=122	=122	=122
8BB	4g	4G	4dd
8BB	.	.	.
8BB	4G	[4dd	16cc
.	.	.	16b
8BB	.	.	16a
.	.	.	16g
=123	=123	=123	=123
8AA	8c	2dd]	16f#
.	.	.	16g
16A	16f#	.	16a
16G	16g	.	16b
8F#	8a	.	16cc
.	.	.	16a
8G	8g	.	16b
.	.	.	16g
=124	=124	=124	=124
8D	4g	4dd	4b
8d	.	.	.
16d	4f#	4d	4a
16c	.	.	.
16B	.	.	.
16A	.	.	.
=125	=125	=125	=125
4G	2G	8r	2r
.	.	8b 8d	.
4r	.	8b 8d	.
.	.	8b 8d	.
=126	=126	=126	=126
4G	2dd	8r	2r
.	.	8g 8B	.
4r	.	8g 8B	.
.	.	8g 8B	.
=127	=127	=127	=127
4GG	16ee	8r	2r
.	16cc	.	.
.	16b	8g 8c	.
.	16cc	.	.
4r	16b	8g 8c	.
.	16cc	.	.
.	16dd	8g 8c	.
.	16ee	.	.
=128	=128	=128	=128
8r	4dd	8g 8B	2r
8D	.	8dd	.
8BB	4r	8b	.
8GG	.	8g	.
=129	=129	=129	=129
8DD	16D	8d	2d
.	16E	.	.
8r	16D	8r	.
.	16E	.	.
4DD	16D	4f#	.
.	16E	.	.
.	16D	.	.
.	16E	.	.
=130	=130	=130	=130
4EE	16D	4g	2ccc
.	16E	.	.
.	16D	.	.
.	16E	.	.
4FF#	16D	4a	.
.	16E	.	.
.	16D	.	.
.	16E	.	.
=131	=131	=131	=131
8GG	8D	8g	8bb
8r	8r	16f#	16aa
.	.	16g	16bb
8D	8d	16b	16ddd
.	.	16g	16bb
8D	8d 8c	16a	16ccc
.	.	16f#	16aa
=132	=132	=132	=132
8GG	8d 8B	8g	4gg
8E	8G	8B	.
8C	8A	8c	4r
8D	16G	16B	.
.	16F#	16A	.
=133	=133	=133	=133
4GG	16B	8G	2r
.	16G	.	.
.	16d	8bb	.
.	16d	.	.
8r	16B	4bb	.
.	16G	.	.
8G	16d	.	.
.	16d	.	.
=134	=134	=134	=134
4F#	16d	8r	2r
.	16A	.	.
.	16f#	16aa	.
.	16f#	16ff#	.
8r	16d	4ddd	.
.	16A	.	.
8F#	16f#	.	.
.	16f#	.	.
=135	=135	=135	=135
4D	16f#	8r	2r
.	16d	.	.
.	16a	8aa	.
.	16a	.	.
8r	16f#	4aa	.
.	16d	.	.
8D	16a	.	.
.	16a	.	.
=136	=136	=136	=136
4C#	16e	8r	2r
.	16A	.	.
.	16g	16gg	.
.	16g	16ee	.
8r	16e	4bb	.
.	16A	.	.
8C#	16g	.	.
.	16g	.	.
=137	=137	=137	=137
4AA	16c#	8r	2r
.	16A	.	.
.	16e	8gg	.
.	16e	.	.
8r	16c#	4gg	.
.	16A	.	.
8AA	16e	.	.
.	16e	.	.
=138	=138	=138	=138
4D	16d	8r	2r
.	16A	.	.
.	16a	16ff#	.
.	16a	16dd	.
8r	16f#	8aa	.
.	16d	.	.
8A	16a	8aa	.
.	16a	.	.
=139	=139	=139	=139
8G	8g	8gg	2r
8F#	8f#	8ff#	.
8E	8e	8ee	.
8D	8d	8dd	.
=140	=140	=140	=140
[2AA	16c#	16a	8r
.	16d	16b-	.
.	16c#	16a	8aa
.	16d	16b-	.
.	16c#	16a	4aa
.	16e	16g	.
.	16d	16f	.
.	16c#	16e	.
=141	=141	=141	=141
2AA_	16d	16f	8r
.	16c#	16e	.
.	16B	16d	16ddd
.	16d	16f	16bb
.	16c#	16e	4gg#
.	16d	16f	.
.	16B	16d	.
.	16c#	16e	.
=142	=142	=142	=142
2AA_	16A	16c#	8r
.	16B	16d	.
.	16c#	16e	8aa
.	16d	16f	.
.	16e	16g	4aa
.	16g	16b-	.
.	16f	16a	.
.	16e	16g	.
=143	=143	=143	=143
2AA_	16d	16f	8r
.	16c#	16e	.
.	16B	16d	16ddd
.	16d	16f	16bb
.	16c#	16e	4gg#
.	16d	16f	.
.	16B	16d	.
.	16c#	16e	.
=144	=144	=144	=144
4AA]	4A	4c#	8r
.	.	.	8aa
8r	8r	8r	4aa
8A	8e 8c#	8a	.
=145	=145	=145	=145
4G	4e 4c#	4b-	8r
.	.	.	8bb-
8r	8r	8r	4bb-
8G	8e 8c#	8b-	.
=146	=146	=146	=146
4F	4d 4A	4a	8r
.	.	.	8aa
8r	8r	8r	4aa
8F	8d 8A	8a	.
=147	=147	=147	=147
4C#	4e 4A	4g	8r
.	.	.	8gg
8r	8r	8r	4gg
8C#	8e 8A	8g	.
=148	=148	=148	=148
4D	4d 4A	4f	8r
.	.	.	8ff
4r	4r	4r	8ff
.	.	.	16ee
.	.	.	16dd
=149	=149	=149	=149
2B-	2d	8r	4ddd
.	.	8f	.
.	.	8f	4gg#
.	.	16e	.
.	.	16d	.
=150	=150	=150	=150
8A	8e	8c#	8aa
8r	8r	8r	8aa#
[4C#	[4e	[4g	[4bb
=151	=151	=151	=151
8C#]	8e]	16g]	16bb]
.	.	16f#	16aa#
4.r	4.r	16g	16bb
.	.	16f#	16aa#
.	.	16g	16bb
.	.	16f#	16aa#
.	.	16g	16bb
.	.	16f#	16aa#
=152	=152	=152	=152
2r	2r	16g	16bb
.	.	16a	16ccc#
.	.	16b	16ddd
.	.	16a	16ccc#
.	.	16g	16bb
.	.	16f#	16aa
.	.	16e	16gg
.	.	16d#	16ff#
=153	=153	=153	=153
2r	2r	16e	16gg
.	.	16f#	16aa
.	.	16g	16bb
.	.	16f#	16aa
.	.	16e	16gg
.	.	16d	16ff#
.	.	16c#	16ee
.	.	16B	16dd#
=154	=154	=154	=154
4r	4r	8c#	8ee
.	.	8d#	8ff#
[4AA	[4c#	[4e	[4gg
=155	=155	=155	=155
8AA]	8c#]	16e]	16gg]
.	.	16d#	16ff#
4.r	4.r	16e	16gg
.	.	16d#	16ff#
.	.	16e	16gg
.	.	16d#	16ff#
.	.	16e	16gg
.	.	16d#	16ff#
=156	=156	=156	=156
2r	2r	16e	16gg
.	.	16f#	16aa
.	.	16g	16bb
.	.	16f#	16aa
.	.	16e	16gg
.	.	16d	16ff#
.	.	16c#	16ee
.	.	16B	16dd
=157	=157	=157	=157
2r	2r	16c#	16ee
.	.	16d	16ff#
.	.	16e	16gg
.	.	16d	16ff#
.	.	16c#	16ee
.	.	16B	16dd
.	.	16A	16cc#
.	.	16G#	16b
=158	=158	=158	=158
2r	2r	8A	8cc#
.	.	8B	8dd
.	.	8B#	8dd#
.	.	8c#	8ee
=159	=159	=159	=159
2r	2r	8d	8ff
.	.	8d#	8ff#
.	.	8e	8gg
.	.	8e#	8gg#
=160	=160	=160	=160
2r	4d	16f#	4.aa
.	.	16d	.
.	.	16f#	.
.	.	16d	.
.	4r	16f#	.
.	.	16d	.
.	.	16f#	8ddd
.	.	16d	.
=161	=161	=161	=161
2r	4d	16g	8ccc#
.	.	16d	.
.	.	16g	8bb
.	.	16d	.
.	4r	16f#	4aa
.	.	16d	.
.	.	16f#	.
.	.	16d	.
=162	=162	=162	=162
2r	4d	16f#	16gg#
.	.	16d	16aa
.	.	16f#	16gg#
.	.	16d	16aa
.	8r	16f#	16gg#
.	.	16d	16aa
.	8d	16f#	16bb
.	.	16d	16aa
=163	=163	=163	=163
2r	4A	16e	8aa
.	.	16c#	.
.	.	16e	8gg
.	.	16c#	.
.	4D	16d	4ff#
.	.	16A	.
.	.	16d	.
.	.	16A	.
=164	=164	=164	=164
2r	4F#	16a	4dd
.	.	16g	.
.	.	16f#	.
.	.	16e	.
.	8F#	16d	8dd
.	.	16c#	.
.	8F#	16B	8dd
.	.	16A	.
=165	=165	=165	=165
2r	4.G	16B	4.ee
.	.	16c#	.
.	.	16d	.
.	.	16e	.
.	.	16f#	.
.	.	16g	.
.	16F#	16a	16ff#
.	16E	16b	16gg
=166	=166	=166	=166
2r	4A	16f#	8aa
.	.	16a	.
.	.	16e	8gg
.	.	16a	.
.	8A	16d	8ff#
.	.	16a	.
.	8A	16c#	8ee
.	.	16a	.
=167	=167	=167	=167
2r	8d	16f#	8dd
.	.	16d	.
.	8A	16f#	8a
.	.	16f#	.
.	8F#	16d	8f#
.	.	16A	.
.	8D	16f#	8d
.	.	16f#	.
=168	=168	=168	=168
4D	16f#	4.a	4.aa
.	16d	.	.
.	16f#	.	.
.	16d	.	.
4r	16f#	.	.
.	16d	.	.
.	16f#	8dd	8ddd
.	16d	.	.
=169	=169	=169	=169
4D	16g	8cc#	8ccc#
.	16d	.	.
.	16g	8b	8bb
.	16d	.	.
4r	16f#	4a	4aa
.	16d	.	.
.	16f#	.	.
.	16d	.	.
=170	=170	=170	=170
4D	16e#	16g#	16gg#
.	16f#	16a	16aa
.	16e#	16g#	16gg#
.	16f#	16a	16aa
8r	16e#	16g#	16gg#
.	16f#	16a	16aa
8D	16g	16b	16bb
.	16f#	16a	16aa
=171	=171	=171	=171
4AA	16e	8a	8aa
.	16d	.	.
.	16c#	8g	8gg
.	16e	.	.
4D	16d	4f#	4ff#
.	16A	.	.
.	16d	.	.
.	16A	.	.
=172	=172	=172	=172
4F#	16a	4d	4dd
.	16g	.	.
.	16f#	.	.
.	16e	.	.
8F#	16d	8d	8dd
.	16c#	.	.
8F#	16B	8d	8dd
.	16A	.	.
=173	=173	=173	=173
4.G	16B	4.e	4.ee
.	16c#	.	.
.	16d	.	.
.	16e	.	.
.	16f#	.	.
.	16g	.	.
16F#	16a	16f#	16ff#
16E	16b	16g	16gg
=174	=174	=174	=174
4A	16f#	8a	8aa
.	16a	.	.
.	16e	8g	8gg
.	16a	.	.
8A	16d	8f#	8ff#
.	16a	.	.
8A	16c#	8e	8ee
.	16a	.	.
=175	=175	=175	=175
8d	16f#	4d	8dd
.	16d	.	.
8A	16f#	.	8a
.	16f#	.	.
8F#	16d	4r	8f#
.	16A	.	.
8D	16f#	.	8d
.	16f#	.	.
=176	=176	=176	=176
4AA	16c#	8r	2r
.	16e	.	.
.	16A	8gg	.
.	16e	.	.
8r	16c#	4gg	.
.	16e	.	.
8A	16A	.	.
.	16e	.	.
=177	=177	=177	=177
4D	16d	8r	2r
.	16f#	.	.
.	16A	16ff#	.
.	16f#	16aa	.
8r	16d	4ddd	.
.	16f#	.	.
8D	16A	.	.
.	16f#	.	.
=178	=178	=178	=178
4AA	16c#	8r	2r
.	16e	.	.
.	16A	8gg	.
.	16e	.	.
8r	16c#	4gg	.
.	16e	.	.
8A	16A	.	.
.	16e	.	.
=179	=179	=179	=179
4D	16d	8r	2r
.	16f#	.	.
.	16A	16ff#	.
.	16f#	16aa	.
8r	16d	4ddd	.
.	16f#	.	.
8D	16A	.	.
.	16f#	.	.
=180	=180	=180	=180
4F#	16a	4d	4dd
.	16g	.	.
.	16f#	.	.
.	16e	.	.
8F#	16d	8d	8dd
.	16c#	.	.
8F#	16B	8d	8dd
.	16A	.	.
=181	=181	=181	=181
4.G	16B	4.e	4.ee
.	16c#	.	.
.	16d	.	.
.	16e	.	.
.	16f#	.	.
.	16g	.	.
16F#	16a	16f#	16ff#
16E	16b	16g	16gg
=182	=182	=182	=182
8F#	8f#	8a	8aa
8G	8e	8g	8gg
8A	8d	8f#	8ff#
8A	8c#	8e	8ee
=183	=183	=183	=183
8D	16d	4d	8dd
.	16A	.	.
8A	16f#	.	8a
.	16f#	.	.
8F#	16d	4r	8f#
.	16A	.	.
8D	16f#	.	8d
.	16f#	.	.
=184	=184	=184	=184
4F#	4.r	16d	8r
.	.	16A	.
.	.	16a	8cc
.	.	16a	.
8r	.	16d	4cc
.	.	16A	.
8F#	8d	16a	.
.	.	16a	.
=185	=185	=185	=185
4G	4d	16d	8r
.	.	16B	.
.	.	16g	16b
.	.	16g	16dd
8r	8r	16g	4gg
.	.	16d	.
8G	16d	16b	.
.	16g	16b	.
=186	=186	=186	=186
4G#	4b	16e	8r
.	.	16B	.
.	.	16b	8dd
.	.	16b	.
8r	8r	16e	4dd
.	.	16B	.
8G#	8e	16b	.
.	.	16b	.
=187	=187	=187	=187
4A	4e	16e	8r
.	.	16c#	.
.	.	16a	16cc#
.	.	16a	16ee
16A	16c#	8a	4aa
16G	16B	.	.
16F#	16A	8r	.
16E	16G	.	.
=188	=188	=188	=188
8D	8F#	4.a	2r
8D	8F#	.	.
8D	8F#	.	.
8D	8F#	8dd	.
=189	=189	=189	=189
4E	4G	8dd	2r
.	.	8cc#	.
4r	4r	8b	.
.	.	8a	.
=190	=190	=190	=190
8C#	4.e	4.g	2r
8C#	.	.	.
8C#	.	.	.
8C#	8g	8b	.
=191	=191	=191	=191
4D	8g	8b	2r
.	8f#	8a	.
4r	8e	8g	.
.	8d	8f#	.
=192	=192	=192	=192
8GG#	16d	4e	4ee
.	16B	.	.
8GG#	16d	.	.
.	16B	.	.
8GG#	16d	8e	8ee
.	16B	.	.
8GG#	16d	8e	8ee
.	16B	.	.
=193	=193	=193	=193
8GG	16c#	4.e	4.ee
.	16A	.	.
8GG	16c#	.	.
.	16A	.	.
8GG	16c#	.	.
.	16A	.	.
8GG	16c#	16f#	16ff#
.	16A	16g	16gg
=194	=194	=194	=194
8FF#	8d	8a	16aa
.	.	.	16ff#
8r	8r	8r	16ee
.	.	.	16dd
8GG	8e 8B	8g	16cc#
.	.	.	16b
8r	8r	8r	16gg
.	.	.	16ee
=195	=195	=195	=195
8AA	8c#	8e 8A	16dd
.	.	.	16cc#
4.r	4.r	4.r	16ff#
.	.	.	16ee
.	.	.	16dd
.	.	.	16cc#
.	.	.	16b
.	.	.	16a
=196	=196	=196	=196
8d	4.f#	4.a	4.aa
8d	.	.	.
8d	.	.	.
8B	8g#	8dd	8ddd
=197	=197	=197	=197
4A	8a	8dd	8ddd
.	8e	8cc#	8ccc#
4r	8d	8b	8bb
.	8c#	8a	8aa
=198	=198	=198	=198
8B	4d	4.g	4.gg
8B	.	.	.
8c#	8e	.	.
8c#	16f#	16a	16aa
.	16g	16b	16bb
=199	=199	=199	=199
4d	8g	8b	8bb
.	8f#	8a	8aa
4r	8e	8g	8gg
.	8d	8f#	8ff#
=200	=200	=200	=200
8G#	16d	4e	4ee
.	16B	.	.
8G#	16d	.	.
.	16B	.	.
8G#	16d	8ee	[4eee
.	16B	.	.
8G#	16d	8ee	.
.	16B	.	.
=201	=201	=201	=201
8G	16c#	4.ee	4eee]
.	16A	.	.
8G	16c#	.	.
.	16A	.	.
8G	16c#	.	8ccc#
.	16A	.	.
8G	16c#	16ff#	16bb
.	16A	16gg	16aa
=202	=202	=202	=202
8F#	8f#	8aa	16ddd
.	.	.	16aa
8G	8e	8gg	16bb
.	.	.	16gg
8A	8d	8ff#	16ff#
.	.	.	16aa
8AA	8c#	8ee	16gg
.	.	.	16ee
=203	=203	=203	=203
4D	4d	16dd	4dd
.	.	16a	.
.	.	16b	.
.	.	16cc#	.
4r	4r	16dd	4r
.	.	16ee	.
.	.	16ff#	.
.	.	16gg	.
=204	=204	=204	=204
4D	16F#	4aa	2r
.	16A	.	.
.	16A	.	.
.	16A	.	.
8r	16d	8ff#	.
.	16A	.	.
8F#	16A	8dd	.
.	16A	.	.
=205	=205	=205	=205
4E	16G	8cc#	2r
.	16A	.	.
.	16A	8ee	.
.	16A	.	.
8r	16E	4g	.
.	16A	.	.
8C#	16A	.	.
.	16A	.	.
=206	=206	=206	=206
4D	8f#	16f#	2r
.	.	16A	.
.	8a	16A	.
.	.	16A	.
8r	4d	16A	.
.	.	16f#	.
8F#	.	16a	.
.	.	16a	.
=207	=207	=207	=207
4G	8c#	16e	2r
.	.	16a	.
.	8e	16a	.
.	.	16a	.
8r	4G	16e	.
.	.	16A	.
8C#	.	16A	.
.	.	16A	.
=208	=208	=208	=208
4.D	16F	4a	[2aa
.	16A	.	.
.	16A	.	.
.	16A	.	.
.	16A	8f	.
.	16d	.	.
8F	16a	8d	.
.	16a	.	.
=209	=209	=209	=209
4E	16a	8c#	2aa]
.	16e	.	.
.	16c#	8e	.
.	16c#	.	.
8C#	16e	4G	.
.	16A	.	.
8AA	16E	.	.
.	16E	.	.
=210	=210	=210	=210
4D	16F	16d	2aa
.	16G	16A	.
.	16A	16A	.
.	16F	16A	.
8r	8D	16f	.
.	.	16d	.
8D	8D	16f	.
.	.	16f	.
=211	=211	=211	=211
8C#	16G	16e	[2aa
.	16E	16c#	.
8E	16c#	16G	.
.	16c#	16G	.
4GG	16A	16g	.
.	16c#	16e	.
.	16e	16c#	.
.	16e	16c#	.
=212	=212	=212	=212
8FF#	8A	8d	8aa]
4.r	8d	8f#	8ddd
.	8e	8g	8ccc#
.	8f#	8a	8ccc
=213	=213	=213	=213
2r	8g	4dd	8aa#
.	8g	.	8bb
.	8g	8b	8gg
.	8g	8cc#	16ff#
.	.	.	16ee
=214	=214	=214	=214
2r	8f#	8dd	16gg#
.	.	.	16aa
.	8b	4dd	16ff#
.	.	.	16dd
.	8g	.	4ee
.	8a	8cc#	.
=215	=215	=215	=215
8r	8d	8dd	4dd
8D	8f#	8dd	.
8E	8g	8cc#	4r
8F#	8a	8cc	.
=216	=216	=216	=216
8G	8d	8a#	2r
8G	4d	8b	.
8B	.	8g	.
8G#	8d	16f#	.
.	.	16e	.
=217	=217	=217	=217
4A	8d 8A	8f# 8A	16r
.	.	.	16d
.	8f#	8aa	16e
.	.	.	16f#
4r	8f#	8aa	16g
.	.	.	16a
.	8f#	8aa	16b
.	.	.	16cc#
=218	=218	=218	=218
2r	8f#	8aa	16dd
.	.	.	16ee
.	8d	8ff#	16ff#
.	.	.	16gg
.	8a	8ff#	16aa
.	.	.	16bb
.	8f#	8dd	16ccc#
.	.	.	16ddd
=219	=219	=219	=219
4AA	8e 8c#	8g 8A	[2ccc#
.	8e	8gg	.
4r	8e	8gg	.
.	8e	8gg	.
=220	=220	=220	=220
2r	8e	8gg	2ccc#]
.	8g	8ee	.
.	8g	8ee	.
.	8e	8cc#	.
=221	=221	=221	=221
8D	8f#	8dd	8ddd
8F#	8a	8cc	4dd
8G	8g	8b	.
8B	8f	8g#	[8dd
=222	=222	=222	=222
8A	8f#	8a	8dd]
8A	8d	8f#	16ee
.	.	.	16ff#
8AA	8c#	8e	16gg
.	.	.	16ee
8AA	8e	8g	16dd
.	.	.	16cc#
=223	=223	=223	=223
8D	8d	8f#	8dd
8c	8a	8ff#	4dd
8B	8b	8gg	.
8B-	8f	8gg#	[8dd
=224	=224	=224	=224
8A	8f#	8aa	8dd]
8A	8d	8f#	16ee
.	.	.	16ff#
8AA	8c#	8e	16gg
.	.	.	16ee
8AA	8e	8g	16dd
.	.	.	16cc#
=225	=225	=225	=225
16D	16d	16f#	4dd
16D	16D	16d	.
16E	16E	16e	.
16F#	16F#	16f#	.
16G	16G	16g	4r
16A	16A	16a	.
16B	16B	16b	.
16c#	16c#	16cc#	.
=226	=226	=226	=226
16d	16d	16dd	2r
16c#	16c#	16cc#	.
16d	16d	16dd	.
16c#	16c#	16cc#	.
16d	16d	16dd	.
16c#	16c#	16cc#	.
16d	16d	16dd	.
16c#	16c#	16cc#	.
=227	=227	=227	=227
4d	16d	16dd	2r
.	16d	16f#	.
.	16e	16g	.
.	16f#	16a	.
4r	16g	16b	.
.	16a	16cc#	.
.	16b	16dd	.
.	16cc#	16ee	.
=228	=228	=228	=228
16d	16dd	16ff#	2r
16c#	16ee	16gg	.
16d	16dd	16ff#	.
16c#	16ee	16gg	.
16d	16dd	16ff#	.
16c#	16ee	16gg	.
16d	16dd	16ff#	.
16c#	16ee	16gg	.
=229	=229	=229	=229
4d	4dd	16ff#	16r
.	.	16f#	16a
.	.	16g	16b
.	.	16a	16cc#
4r	4r	16b	16dd
.	.	16cc#	16ee
.	.	16dd	16ff#
.	.	16ee	16gg
=230	=230	=230	=230
2r	16d	16ff#	16aa
.	16c#	16gg	16bb
.	16d	16ff#	16aa
.	16c#	16gg	16bb
.	16d	16ff#	16aa
.	16c#	16gg	16bb
.	16d	16ff#	16aa
.	16c#	16gg	16bb
=231	=231	=231	=231
2r	4d	8ff#	4.aa
.	.	16f#	.
.	.	16d	.
.	4r	16f#	.
.	.	16d	.
.	.	16f#	8ddd
.	.	16d	.
=232	=232	=232	=232
2r	4d	16g	8ccc#
.	.	16d	.
.	.	16g	8bb
.	.	16d	.
.	4r	16f#	4aa
.	.	16d	.
.	.	16f#	.
.	.	16d	.
=233	=233	=233	=233
2r	4d	16f#	16gg#
.	.	16d	16aa
.	.	16f#	16gg#
.	.	16d	16aa
.	8r	16f#	16gg#
.	.	16d	16aa
.	8d	16f#	16bb
.	.	16d	16aa
=234	=234	=234	=234
2r	4A	16e	8aa
.	.	16c#	.
.	.	16e	8gg
.	.	16c#	.
.	4D	16d	4ff#
.	.	16A	.
.	.	16d	.
.	.	16A	.
=235	=235	=235	=235
2r	4F#	16a	4dd
.	.	16g	.
.	.	16f#	.
.	.	16e	.
.	8F#	16d	8dd
.	.	16c#	.
.	8F#	16B	8dd
.	.	16A	.
=236	=236	=236	=236
2r	4.G	16B	4.ee
.	.	16c#	.
.	.	16d	.
.	.	16e	.
.	.	16f#	.
.	.	16g	.
.	16F#	16a	16ff#
.	16E	16b	16gg
=237	=237	=237	=237
2r	8A	16cc#	8aa
.	.	16a	.
.	8A	16ee	8gg
.	.	16a	.
.	8A	16dd	8ff#
.	.	16a	.
.	8A	16cc#	8ee
.	.	16a	.
=238	=238	=238	=238
2r	8d	16f#	8dd
.	.	16a	.
.	8A	16f#	8a
.	.	16f#	.
.	8F#	16d	8f#
.	.	16A	.
.	8D	16f#	8d
.	.	16f#	.
=239	=239	=239	=239
4D	16f#	4.a	4.aa
.	16d	.	.
.	16f#	.	.
.	16d	.	.
4r	16f#	.	.
.	16d	.	.
.	16f#	8dd	8ddd
.	16d	.	.
=240	=240	=240	=240
4D	16g	8cc#	8ccc#
.	16d	.	.
.	16g	8b	8bb
.	16d	.	.
4r	16f#	4a	4aa
.	16d	.	.
.	16f#	.	.
.	16d	.	.
=241	=241	=241	=241
4D	16f#	16g#	16gg#
.	16d	16a	16aa
.	16f#	16g#	16gg#
.	16d	16a	16aa
8r	16f#	16g#	16gg#
.	16d	16a	16aa
8D	16f#	16b	16bb
.	16d	16a	16aa
=242	=242	=242	=242
4AA	16e	8a	8aa
.	16c#	.	.
.	16e	8g	8gg
.	16c#	.	.
4D	16d	4f#	4ff#
.	16A	.	.
.	16d	.	.
.	16A	.	.
=243	=243	=243	=243
4F#	16a	4d	4dd
.	16g	.	.
.	16f#	.	.
.	16e	.	.
8F#	16d	8d	8dd
.	16c#	.	.
8F#	16B	8d	8dd
.	16A	.	.
=244	=244	=244	=244
16G	16B	4.e	4.ee
16F#	16A	.	.
16E	16G	.	.
16D	16F#	.	.
8C#	16E	.	.
.	16e	.	.
16D	16d	16f#	16ff#
16E	16c#	16g	16gg
=245	=245	=245	=245
8F#	8f#	8a	8aa
8G	8e	8g	8gg
8A	8d	8f#	8ff#
8AA	8c#	8e	8ee
=246	=246	=246	=246
8F#	4a	8d	16dd
.	.	.	16ff#
8F#	.	4dd	16aa
.	.	.	16ddd
8G	8g	.	16aa#
.	.	.	16bb
8G	8b	[8dd	16gg
.	.	.	16ee
=247	=247	=247	=247
8A	8a	8dd]	16gg#
.	.	.	16aa
8A	8d	8f#	16ff#
.	.	.	16dd
8A	8c#	8e	16ff#
.	.	.	16gg
8G	8e	8a	16ee
.	.	.	16cc#
=248	=248	=248	=248
8F#	16f#	16a	16dd
.	16f#	16a	16ff#
8F#	16f#	16a	16aa
.	16f#	16a	16ddd
8G	16b 16g	16dd	16aa#
.	16b 16g	16dd	16bb
8G	16b 16g	16dd	16gg
.	16b 16g	16dd	16ee
=249	=249	=249	=249
8A	16a 16f#	16dd 16d	16gg#
.	16a 16f#	16dd 16d	16aa
8A	16a 16f#	16dd 16d	16ff#
.	16a 16f#	16dd 16d	16dd
8AA	16a 16g	16cc# 16e	16ff#
.	16a 16g	16cc# 16e	16gg
8AA	16a 16g	16cc# 16e	16ee
.	16a 16g	16cc# 16e	16cc#
=250	=250	=250	=250
4D	4a 4f#	4dd 4d	4dd
4D	4a 4f#	4ff# 4a 4d	4ddd
=251	=251	=251	=251
4D	4a 4f#	4ff# 4a 4d	4ddd
4r	4r	4r	4r
==	==	==	==
*-	*-	*-	*-
!!!RWG1: This file contains only pitch and duration data.
!!!RWG2: Transposing instruments are not transposed.
!!!RWG3: Spines may have incompatible meters.
!!!RWG4: Durations of rests and tied notes may be interpreted.
!!!RWG: Key is interpreted using the Humdrum key tool.
!!!AFT: stage1
!!!END: 1997/04/15
!!!KEY: 1298667590
!!!EMD: Converted from MuseData to Humdrum Dec 16, 2000, by Andreas Kornstaedt using muse2kern.
!!!EMD: Manual editing by Craig Sapp, Nov 2001
